X: 1
T: Myra's
M: 6/8
L: 1/8
R: jig
K: Amaj
|:e|cBA AfA|eAf ecA|cBA ECE|F3 F2e|
cBA AfA|eAf aed|cBA FEF|A3 A2:|
|:f|e2f- f2a-|afe cBA|e2f afe|cBB B2f|
e2f- f2a-|afe cBA|BAc BAF|A3 A2:|
